src/assets/icons/sound.svg

<svg width="800px" height="800px" viewBox="0 0 512 512" version="1.1"
    xmlns="http://www.w3.org/2000/svg" xmlns:xlink="http://www.w3.org/1999/xlink">
    <title>sound-loud</title>
    <g id="Page-1" stroke="none" stroke-width="1" fill="none" fill-rule="evenodd">
        <g id="icon" fill="#000000" transform="translate(42.666667, 85.333333)">
            <path
                d="M361.299413,341.610667 L328.014293,314.98176 C402.206933,233.906133 402.206933,109.96608 328.013013,28.8906667 L361.298133,2.26304 C447.910187,98.97536 447.908907,244.898347 361.299413,341.610667 Z M276.912853,69.77216 L243.588693,96.4309333 C283.38432,138.998613 283.38304,204.87488 243.589973,247.44256 L276.914133,274.101333 C329.118507,215.880107 329.118507,127.992107 276.912853,69.77216 Z M191.749973,1.42108547e-14 L80.8957867,87.2292267 L7.10542736e-15,87.2292267 L7.10542736e-15,257.895893 L81.0208,257.895893 L191.749973,343.35424 L191.749973,1.42108547e-14 L191.749973,1.42108547e-14 Z M42.6666667,129.895893 L95.6874667,129.895893 L149.083307,87.8749867 L149.083307,256.520747 L95.5624533,215.229227 L42.6666667,215.229227 L42.6666667,129.895893 Z"
                id="Shape">

            </path>
        </g>
    </g>
</svg>

<svg xmlns="http://www.w3.org/2000/svg" viewBox="0 0 512 512">
    <g id="Page-1" fill="none" fill-rule="evenodd" stroke="none" stroke-width="1">
        <g id="icon" fill="#000" transform="translate(42.667 85.333)">
            <path id="Shape"
                d="m361.3 341.61-33.286-26.628c74.193-81.076 74.193-205.016-.001-286.091l33.285-26.628c86.612 96.712 86.61 242.635.001 339.348ZM276.912 69.773l-33.324 26.659c39.795 42.568 39.794 108.444.001 151.012l33.324 26.658c52.205-58.22 52.205-146.109-.001-204.329ZM191.75 0 80.896 87.23H0v170.666h81.02l110.73 85.458V0ZM42.667 129.896h53.02l53.396-42.021v168.646l-53.52-41.292H42.666v-85.333Z" />
        </g>
    </g>
</svg>
